src/images/pages/set_currency/gbp_icon.svg

<?xml version="1.0" encoding="UTF-8"?>
<svg width="20px" height="20px" viewBox="0 0 20 20" version="1.1" xmlns="http://www.w3.org/2000/svg" xmlns:xlink="http://www.w3.org/1999/xlink">
    <!-- Generator: Sketch 47 (45396) - http://www.bohemiancoding.com/sketch -->
    <title>GBP</title>
    <desc>Created with Sketch.</desc>
    <defs></defs>
    <g id="Landing-Page" stroke="none" stroke-width="1" fill="none" fill-rule="evenodd">
        <g transform="translate(-510.000000, -478.000000)" id="Real-account" fill-rule="nonzero">
            <g transform="translate(330.000000, 432.000000)">
                <g id="Currency" transform="translate(90.000000, 46.000000)">
                    <g id="GBP" transform="translate(90.000000, 0.000000)">
                        <path d="M13.4220004,0.60255938 C8.2456411,-1.27826266 2.48227195,1.38957002 0.601172301,6.57850459 C-1.27992735,11.7674392 1.40164024,17.5166186 6.57799957,19.3974406 C11.7543589,21.2782627 17.517728,18.61043 19.3988277,13.4214954 C21.2799274,8.23256085 18.5983598,2.48338142 13.4220004,0.60255938 Z" id="Shape" fill="#E6273E"></path>
                        <path d="M8.85144675,14.0914124 L8.94421202,13.955771 C9.21933782,13.5534821 9.35805596,13.0073914 9.35811349,12.3190857 L9.29948057,10.7127684 L11.4752023,10.7127684 L11.4752023,9.80418079 L9.27107495,9.80418079 L9.26816397,9.72040324 L9.20584282,7.92531073 C9.20584282,7.33149048 9.36216911,6.84751077 9.676109,6.47701695 C9.99267577,6.10342302 10.409187,5.91548023 10.9188644,5.91548023 C11.4523591,5.91548023 11.8767604,6.06570101 12.1870459,6.36751305 C12.4800029,6.65246987 12.6344936,7.03408273 12.6511354,7.50768362 L13.7989046,7.50768362 C13.7813614,6.75790383 13.5347011,6.1592771 13.0588763,5.70660152 C12.5641439,5.23593822 11.8916291,5 11.0364837,5 C10.1357276,5 9.41388322,5.26534928 8.86587347,5.79569159 C8.31850089,6.32541726 8.04473561,7.03340625 8.04468347,7.92230862 L8.11007209,9.80418079 L7,9.80418079 L7,10.7127684 L8.13850232,10.7127684 L8.1415415,10.7964087 L8.19694875,12.3228249 L8.19692985,12.3797736 C8.18750989,12.8302247 8.12362012,13.2109373 8.00441534,13.5220746 C7.87974754,13.8474709 7.71083342,14.0403415 7.49243392,14.0892959 L7.02767512,14.0914124 L7.02767512,15 L13.9941909,15 L14,14.0914124 L8.85144675,14.0914124 Z" stroke="#FFFFFF" stroke-width="0.5" fill="#FFFFFF"></path>
                    </g>
                </g>
            </g>
        </g>
    </g>
</svg>

<svg width="20" height="20" viewBox="0 0 20 20" xmlns="http://www.w3.org/2000/svg"><title>GBP</title><g fill-rule="nonzero" fill="none"><path d="M13.422.603C8.246-1.278 2.482 1.39.602 6.579c-1.882 5.188.8 10.938 5.976 12.818 5.176 1.881 10.94-.787 12.82-5.976 1.882-5.188-.8-10.938-5.976-12.818z" fill="#E6273E"/><path d="M8.851 14.091l.093-.135c.275-.403.414-.949.414-1.637L9.3 10.713h2.176v-.909H9.271l-.003-.084-.062-1.795c0-.594.156-1.077.47-1.448.317-.374.733-.562 1.243-.562.533 0 .958.15 1.268.453.293.284.447.666.464 1.14H13.8c-.018-.75-.264-1.349-.74-1.801C12.564 5.236 11.892 5 11.036 5c-.9 0-1.622.265-2.17.796-.547.53-.821 1.237-.821 2.126l.065 1.882H7v.909h1.139l.003.083.055 1.527v.057c-.01.45-.073.83-.193 1.142-.124.325-.293.518-.512.567l-.464.002V15h6.966l.006-.909H8.851z" stroke="#FFF" stroke-width=".5" fill="#FFF"/></g></svg>
